dist/assets/img/plans/guru.svg

<svg width="22" height="24" viewBox="0 0 22 24" fill="none" xmlns="http://www.w3.org/2000/svg">
<path d="M10.5 0.288675C10.8094 0.110043 11.1906 0.110042 11.5 0.288675L20.8923 5.71132C21.2017 5.88996 21.3923 6.22008 21.3923 6.57735V17.4226C21.3923 17.7799 21.2017 18.11 20.8923 18.2887L11.5 23.7113C11.1906 23.89 10.8094 23.89 10.5 23.7113L1.1077 18.2887C0.798295 18.11 0.607696 17.7799 0.607696 17.4226L0.607696 6.57735C0.607696 6.22009 0.798294 5.88996 1.1077 5.71132L10.5 0.288675Z" fill="#2A79FC"/>
</svg>

<svg width="22" height="24" viewBox="0 0 22 24" fill="none" xmlns="http://www.w3.org/2000/svg"><path d="M10.5.289a1 1 0 011 0l9.392 5.422a1 1 0 01.5.866v10.846a1 1 0 01-.5.866L11.5 23.71a1 1 0 01-1 0l-9.392-5.42a1 1 0 01-.5-.866V6.577a1 1 0 01.5-.866L10.5.29z" fill="#2A79FC"/></svg>
